korla/apps/symbolic/accessories-dictionary-symbolic.svg

<svg style="clip-rule:evenodd;fill-rule:evenodd;stroke-linejoin:round;stroke-miterlimit:2" version="1.1" viewBox="0 0 16 16" xmlns="http://www.w3.org/2000/svg">
 <path d="m10.03 1.15c-0.15 0-0.3 0.01-0.46 0.03-0.57 0.08-1.25 0.35-2.02 0.76-1.54-0.85-2.74-0.9-3.74-0.64-1.07 0.27-1.94 0.72-3.29 0.68l-0.52-0.02v14.04h15v-14.02l-0.52 0.02c-1.51 0.05-2.27-0.39-3.25-0.68-0.36-0.11-0.76-0.18-1.2-0.17zm-5.29 0.99c0.62-0.07 1.938 0.08 2.478 0.6v8.64c-0.619-0.63-2.428-0.68-3.398-0.44-0.66 0.16-2.318 0.34-3.011 0.49v-8.64c0.973-0.14 2.661-0.37 3.241-0.52 0.24-0.06 0.46-0.11 0.69-0.13zm5.6 0c0.2 0.02 0.4 0.07 0.61 0.14 0.53 0.15 2.195 0.4 3.241 0.55v8.6c-0.693-0.15-2.351-0.34-3.001-0.5-0.98-0.24-2.789-0.18-3.408 0.48v-8.61c0.394-0.38 1.468-0.59 1.898-0.66 0.24-0.03 0.45-0.03 0.66 0zm-0.54 9.61c0.37-0.01 0.75 0.05 1.15 0.15 0.64 0.16 2.353 0.43 3.241 0.63v2.641h-13.382v-2.631c0.876-0.2 2.601-0.47 3.241-0.63 1.08-0.27 2-0.3 3.15 0.74l0.34 0.3 0.33-0.31c0.7-0.64 1.31-0.87 1.93-0.89z" style="fill-rule:nonzero;fill:rgb(223,223,223)"/>
 <path d="m0.809 15.171v-2.611l4.351-1.13 2.34 0.6 2.39-0.67 4.301 0.94v2.871h-13.382z" style="fill-opacity:.3;fill-rule:nonzero;fill:rgb(223,223,223)"/>
</svg>

<svg xmlns="http://www.w3.org/2000/svg" width="16" height="16" version="1.1">
 <path style="fill:#dfdfdf" d="M 10.03,1.15 C 9.88,1.15 9.73,1.16 9.57,1.18 9,1.26 8.32,1.53 7.55,1.94 6.01,1.09 4.81,1.04 3.81,1.3 2.74,1.57 1.87,2.02 0.52,1.98 L 0,1.96 V 16 H 15 V 1.98 L 14.48,2 C 12.97,2.05 12.21,1.61 11.23,1.32 10.87,1.21 10.47,1.14 10.03,1.15 Z M 4.74,2.14 C 5.36,2.07 6.04,2.22 7,2.74 V 11.38 C 5.9,10.75 4.79,10.7 3.82,10.94 3.16,11.1 2.57,11.28 2,11.43 V 2.79 C 2.8,2.65 3.47,2.42 4.05,2.27 4.29,2.21 4.51,2.16 4.74,2.14 Z M 10.34,2.14 C 10.54,2.16 10.74,2.21 10.95,2.28 11.48,2.43 12.14,2.68 13,2.83 V 11.43 C 12.43,11.28 11.84,11.09 11.19,10.93 10.21,10.69 9.1,10.75 8,11.41 V 2.8 C 8.7,2.42 9.25,2.21 9.68,2.14 9.92,2.11 10.13,2.11 10.34,2.14 Z M 9.8,11.75 C 10.17,11.74 10.55,11.8 10.95,11.9 11.59,12.06 12.27,12.33 13,12.53 V 14 H 2 V 12.54 C 2.72,12.34 3.41,12.07 4.05,11.91 5.13,11.64 6.05,11.61 7.2,12.65 L 7.54,12.95 7.87,12.64 C 8.57,12 9.18,11.77 9.8,11.75 Z"/>
 <path style="opacity:0.3;fill:#dfdfdf" d="M 0.94,14.75 V 12.56 L 5.16,11.43 7.5,12.03 9.89,11.36 13.63,12.36 V 14.81 Z"/>
</svg>
